assets/icons/messages_filled.svg

<svg width="25" height="24" viewBox="0 0 25 24" fill="none" xmlns="http://www.w3.org/2000/svg">
<path d="M10.7301 1.75049H15.0301C19.0842 1.75049 21.1112 1.75049 22.3707 3.01456C23.6301 4.27862 23.6301 6.3131 23.6301 10.3821V10.9216C23.6301 14.9905 23.6301 17.025 22.3707 18.2891C21.1112 19.5531 19.0842 19.5531 15.0301 19.5531C14.4276 19.5666 13.9477 19.6126 13.4763 19.7204C12.3925 19.9708 11.3762 20.4788 10.3789 20.9773C10.1909 21.0713 10.0032 21.1651 9.81624 21.2567C8.13646 22.0787 7.29658 22.4898 6.7695 22.105C6.26657 21.729 6.24444 21.0199 6.38453 20.2356C6.44239 19.9117 6.47133 19.7497 6.40087 19.6479C6.33042 19.5462 6.16821 19.5163 5.84378 19.4563C4.78749 19.2612 3.97051 18.8721 3.38957 18.2891C2.13013 17.025 2.13013 14.9905 2.13013 10.9216V10.3821C2.13013 6.3131 2.13013 4.27862 3.38957 3.01456C4.64901 1.75049 6.67605 1.75049 10.7301 1.75049Z" fill="white"/>
</svg>

<svg xmlns="http://www.w3.org/2000/svg" width="25" height="24" fill="none" viewBox="0 0 25 24"><path fill="#fff" d="M10.73 1.75h4.3c4.054 0 6.081 0 7.34 1.265 1.26 1.264 1.26 3.298 1.26 7.367v.54c0 4.069 0 6.103-1.26 7.367-1.259 1.264-3.286 1.264-7.34 1.264-.602.014-1.082.06-1.554.167-1.084.25-2.1.759-3.097 1.257l-.563.28c-1.68.822-2.52 1.233-3.047.848-.502-.376-.525-1.085-.384-1.87.057-.323.086-.485.016-.587s-.233-.132-.557-.192Q4.26 19.164 3.39 18.29c-1.26-1.264-1.26-3.299-1.26-7.367v-.54c0-4.069 0-6.103 1.26-7.367C4.649 1.75 6.676 1.75 10.73 1.75"/></svg>
